X:1
T:Fahre Fort, 67.87.896
T:German, 1704
T:Fahre Fort, 67.87.896
T:Public Domain
C:German, 1704
Z:Public Domain
%%score ( 1 2 ) ( 3 4 )
L:1/8
M:4/4
K:C
V:1 treble 
V:2 treble 
V:3 bass 
V:4 bass 
V:1
 C4 [CE]4 | [DG]8 | [FA]4 [GB]4 | [Gc]8 | [Ge]2 [Gd]2 [Ec]2 [Dd]2 | [Ec]2 [DB]2 [Ec]4 | %6
 [EG]2 [EG]2 [CA]2 [EB]2 | [Ec]2 [Dd]2 [DB]2 [DG]2 | [Dd]2 [Gd]2 [Ge]2 [Ac]2 | [GB]2 [^FA]2 G4 | %10
 [FA]2 [FA]2 [DG]2 [CG]2 | [CF]2 [B,G]2 [CE]2 C2 | [CD]2 [B,D]2 C2 D2 | [CE]2 [CF]2 [CG]2 [CE]2 | %14
 [B,D]6 z2 | C4 [CE]4 | [DG]8 | [FA]4 [DB]4 | [Ec]8 |] %19
V:2
 C4 x4 | x8 | x8 | x8 | x8 | x8 | x8 | x8 | x8 | x4 G4 | x8 | x6 C2 | x4 C2 D2 | x8 | x8 | C4 x4 | %16
 x8 | x8 | x8 |] %19
V:3
 [C,E,]4 [C,G,]4 | [G,,G,B,]8 | [D,D]4 [G,D]4 | [C,CE]8 | [C,C]2 [G,B,]2 [A,C]2 [F,A,]2 | %5
 G,2 [G,,G,]2 [C,G,]4 | [C,C]2 [E,B,]2 [F,A,]2 [E,^G,]2 | [A,,A,]2 [^F,,^F,A,]2 [G,,G,]2 [B,,G,]2 | %8
 [B,,G,]2 [G,,G,B,]2 [C,C]2 [C,E]2 | [D,D]2 [D,D]2 [G,B,]4 | [D,D]2 [F,C]2 [F,B,]2 [E,G,]2 | %11
 [D,A,]2 [D,G,]2 [C,G,]2 [A,,A,]2 | [F,,A,]2 [G,,G,]2 [A,,E,]2 [B,,G,]2 | %13
 [C,G,]2 [F,A,]2 [E,G,]2 [C,G,]2 | [G,,G,]6 z2 | [C,E,]4 [A,,A,]4 | [G,,B,]8 | [D,A,]4 [G,,G,]4 | %18
 [C,G,]8 |] %19
V:4
 x8 | x8 | x8 | x8 | x8 | G,2 x6 | x8 | x8 | x8 | x8 | x8 | x8 | x8 | x8 | x8 | x8 | x8 | x8 | %18
 x8 |] %19

